; generated by PrusaSlicer 2.2.0+win64 on 2021-01-13 at 17:51:16 UTC

; 

; external perimeters extrusion width = 0.45mm
; perimeters extrusion width = 0.45mm
; infill extrusion width = 0.45mm
; solid infill extrusion width = 0.45mm
; top infill extrusion width = 0.40mm
; support material extrusion width = 0.35mm
; first layer extrusion width = 0.42mm

M73 P0 R273
M73 Q0 S273
M201 X1000 Y1000 Z200 E5000 ; sets maximum accelerations, mm/sec^2
M203 X200 Y200 Z12 E120 ; sets maximum feedrates, mm/sec
M204 P1250 R1250 T1250 ; sets acceleration (P, T) and retract acceleration (R), mm/sec^2
M205 X8.00 Y8.00 Z0.40 E4.50 ; sets the jerk limits, mm/sec
M205 S0 T0 ; sets the minimum extruding and travel feed rate, mm/sec
M107
M862.3 P "MK3S" ; printer model check
M862.1 P0.4 ; nozzle diameter check
M115 U3.9.2 ; tell printer latest fw version
G90 ; use absolute coordinates
M83 ; extruder relative mode
M104 S215 ; set extruder temp
M140 S60 ; set bed temp
M190 S60 ; wait for bed temp
M109 S215 ; wait for extruder temp
G28 W ; home all without mesh bed level
G80 ; mesh bed leveling
G1 Y-3.0 F1000.0 ; go outside print area
G92 E0.0
G1 X60.0 E9.0 F1000.0 ; intro line
M73 Q0 S273
M73 P0 R273
G1 X100.0 E12.5 F1000.0 ; intro line
G92 E0.0
M221 S95

; Don't change E values below. Excessive value can damage the printer.
M907 E430 ; set extruder motor current
G21 ; set units to millimeters
G90 ; use absolute coordinates
M83 ; use relative distances for extrusion
M900 K0.05 ; Filament gcode LA 1.5
M900 K30 ; Filament gcode LA 1.0
;BEFORE_LAYER_CHANGE
G92 E0.0
;0.2


G1 E-0.80000 F2100.00000
G1 Z0.400 F10800.000
;AFTER_LAYER_CHANGE
;0.2
G1 X88.062 Y66.816
G1 Z0.200
G1 E0.80000 F2100.00000
M204 S1000
G1 F600.000
G1 X88.977 Y66.623 E0.02931
G1 X161.004 Y66.623 E2.25835
G1 X161.731 Y66.738 E0.02308
G1 X162.391 Y67.072 E0.02319
G1 X162.916 Y67.593 E0.02319
G1 X163.256 Y68.250 E0.02319
G1 X167.286 Y85.266 E0.54827
G1 X167.347 Y85.753 E0.01538
G1 X167.340 Y124.559 E1.21674
G1 X163.303 Y141.589 E0.54876
G1 X163.075 Y142.160 E0.01929
G1 X162.707 Y142.654 E0.01929
G1 X161.927 Y143.189 E0.02966
G1 X161.000 Y143.377 E0.02967
G1 X88.977 Y143.377 E2.25823
G1 X88.098 Y143.199 E0.02813
G1 X87.347 Y142.708 E0.02813
G1 X86.944 Y142.194 E0.02048
G1 X86.696 Y141.585 E0.02060
G1 X82.714 Y124.734 E0.54291
G1 X82.652 Y124.198 E0.01692
G1 X82.660 Y85.441 E1.21519
G1 X86.697 Y68.411 E0.54876
G1 X86.925 Y67.840 E0.01929
G1 X87.293 Y67.346 E0.01929
G1 X88.013 Y66.850 E0.02743
G1 F8640.000
G1 X88.977 Y66.623 E-0.22867
G1 X91.278 Y66.623 E-0.53133
G1 E-0.04000 F2100.00000
G1 Z0.600 F10800.000
G1 X170.614 Y132.297
G1 Z0.200
G1 E0.80000 F2100.00000
G1 F600.000
G1 X170.580 Y142.097 E0.30726
G1 X169.837 Y144.876 E0.09019
G1 X168.312 Y147.288 E0.08948
G1 X167.211 Y148.363 E0.04824
G1 X165.954 Y149.297 E0.04912
G1 X161.943 Y150.616 E0.13237
G1 X88.189 Y150.616 E2.31249
G1 X85.296 Y149.910 E0.09338
G1 X82.714 Y148.314 E0.09518
G1 X81.673 Y147.253 E0.04659
G1 X80.768 Y146.074 E0.04662
G1 X79.457 Y142.380 E0.12289
G1 X79.388 Y132.173 E0.32006
G1 X78.560 Y131.574 E0.03202
G1 X76.784 Y129.535 E0.08479
G1 X75.696 Y127.260 E0.07907
G1 X75.225 Y124.828 E0.07767
G1 X75.225 Y84.792 E1.25529
G1 X75.978 Y81.822 E0.09607
G1 X77.377 Y79.544 E0.08381
G1 X79.141 Y77.858 E0.07651
G1 X79.386 Y77.703 E0.00910
G1 X79.420 Y67.903 E0.30726
G1 X80.163 Y65.124 E0.09019
G1 X81.688 Y62.712 E0.08948
G1 X82.789 Y61.637 E0.04824
G1 X84.046 Y60.703 E0.04912
G1 X88.057 Y59.384 E0.13238
G1 X161.733 Y59.388 E2.31006
M73 Q0 S272
M73 P0 R271
G1 X164.197 Y59.894 E0.07886
G1 X166.391 Y61.001 E0.07704
G1 X168.291 Y62.706 E0.08005
G1 X169.723 Y64.870 E0.08136
G1 X170.585 Y67.920 E0.09939
G1 X170.606 Y77.813 E0.31019
G1 X171.348 Y78.344 E0.02860
G1 X172.911 Y80.031 E0.07211
G1 X174.141 Y82.293 E0.08073
G1 X174.775 Y85.048 E0.08863
G1 X174.775 Y125.208 E1.25919
G1 X174.022 Y128.178 E0.09607
G1 X172.623 Y130.456 E0.08381
G1 X170.859 Y132.142 E0.07651
G1 X170.665 Y132.265 E0.00722
G1 F8640.000
G1 X170.636 Y135.556 E-0.76000
G1 E-0.04000 F2100.00000
G1 Z0.600 F10800.000
G1 X170.230 Y78.009
G1 Z0.200
G1 E0.80000 F2100.00000
G1 F600.000
G1 X171.086 Y78.616 E0.03290
G1 X172.592 Y80.233 E0.06930
G1 X173.780 Y82.404 E0.07758
G1 X174.398 Y85.070 E0.08580
G1 X174.397 Y125.185 E1.25778
G1 X173.685 Y128.006 E0.09124
G1 X172.345 Y130.200 E0.08062
G1 X170.615 Y131.853 E0.07502
G1 X170.238 Y132.082 E0.01383
G1 X170.209 Y142.024 E0.31174
G1 X169.502 Y144.699 E0.08676
G1 X168.032 Y147.034 E0.08650
G1 X166.974 Y148.069 E0.04642
G1 X165.805 Y148.949 E0.04587
G1 X161.913 Y150.238 E0.12857
G1 X88.212 Y150.238 E2.31082
G1 X85.415 Y149.551 E0.09032
G1 X82.967 Y148.033 E0.09031
G1 X81.965 Y147.014 E0.04480
G1 X81.085 Y145.868 E0.04531
G1 X79.823 Y142.285 E0.11911
G1 X79.764 Y131.977 E0.32319
G1 X78.829 Y131.309 E0.03604
G1 X77.112 Y129.348 E0.08171
G1 X76.061 Y127.164 E0.07601
G1 X75.602 Y124.809 E0.07521
G1 X75.602 Y84.815 E1.25398
G1 X76.315 Y81.994 E0.09124
G1 X77.655 Y79.799 E0.08062
G1 X79.385 Y78.147 E0.07502
G1 X79.762 Y77.918 E0.01383
G1 X79.791 Y67.976 E0.31174
G1 X80.498 Y65.301 E0.08676
G1 X81.968 Y62.966 E0.08650
G1 X83.026 Y61.931 E0.04642
G1 X84.195 Y61.051 E0.04587
G1 X88.088 Y59.762 E0.12858
G1 X161.714 Y59.765 E2.30850
G1 X164.095 Y60.258 E0.07626
G1 X166.197 Y61.326 E0.07391
G1 X168.021 Y62.969 E0.07697
G1 X169.392 Y65.052 E0.07820
G1 X170.208 Y67.947 E0.09428
G1 X170.230 Y77.949 E0.31361
G1 X169.853 Y78.206 F10800.000
G1 F600.000
G1 X170.824 Y78.888 E0.03722
G1 X172.274 Y80.436 E0.06649
G1 X173.418 Y82.515 E0.07442
G1 X174.020 Y85.091 E0.08295
G1 X174.020 Y125.161 E1.25636
G1 X173.348 Y127.835 E0.08643
G1 X172.066 Y129.945 E0.07742
G1 X170.371 Y131.565 E0.07350
G1 X169.861 Y131.863 E0.01855
G1 X169.838 Y141.952 E0.31634
G1 X169.167 Y144.524 E0.08332
G1 X167.752 Y146.780 E0.08351
G1 X166.737 Y147.775 E0.04456
G1 X165.603 Y148.629 E0.04452
G1 X161.882 Y149.861 E0.12288
G1 X88.236 Y149.861 E2.30915
G1 X85.535 Y149.192 E0.08724
G1 X83.220 Y147.753 E0.08545
G1 X82.242 Y146.758 E0.04374
M73 Q0 S271
G1 X81.403 Y145.663 E0.04327
M73 P0 R270
G1 X80.189 Y142.190 E0.11533
G1 X80.140 Y131.781 E0.32638
G1 X79.097 Y131.043 E0.04007
G1 X77.440 Y129.161 E0.07862
G1 X76.427 Y127.067 E0.07293
G1 X75.980 Y124.791 E0.07272
G1 X75.980 Y84.839 E1.25268
G1 X76.652 Y82.165 E0.08643
G1 X77.934 Y80.055 E0.07742
G1 X79.629 Y78.435 E0.07350
G1 X80.139 Y78.137 E0.01855
G1 X80.162 Y68.048 E0.31634
G1 X80.833 Y65.476 E0.08332
G1 X82.248 Y63.220 E0.08351
G1 X83.263 Y62.225 E0.04456
G1 X84.397 Y61.371 E0.04452
G1 X88.118 Y60.139 E0.12289
G1 X161.695 Y60.142 E2.30695
G1 X163.948 Y60.606 E0.07214
G1 X165.964 Y61.623 E0.07078
G1 X167.750 Y63.233 E0.07540
G1 X169.060 Y65.235 E0.07502
G1 X169.831 Y67.973 E0.08920
G1 X169.853 Y78.146 E0.31895
G1 X169.476 Y78.403 F10800.000
G1 F600.000
G1 X170.563 Y79.161 E0.04156
G1 X171.955 Y80.640 E0.06367
G1 X173.057 Y82.627 E0.07126
G1 X173.643 Y85.114 E0.08009
G1 X173.643 Y125.138 E1.25493
G1 X172.989 Y127.714 E0.08333
G1 X171.758 Y129.727 E0.07399
G1 X170.129 Y131.275 E0.07045
G1 X169.484 Y131.643 E0.02329
G1 X169.467 Y141.882 E0.32104
G1 X168.832 Y144.349 E0.07988
G1 X167.472 Y146.527 E0.08052
G1 X166.501 Y147.482 E0.04269
G1 X165.401 Y148.310 E0.04316
G1 X161.852 Y149.484 E0.11720
G1 X88.258 Y149.484 E2.30749
G1 X85.708 Y148.856 E0.08236
G1 X83.473 Y147.472 E0.08242
G1 X82.535 Y146.519 E0.04193
G1 X81.721 Y145.457 E0.04195
G1 X80.556 Y142.097 E0.11153
G1 X80.516 Y131.584 E0.32962
G1 X79.364 Y130.776 E0.04413
G1 X77.768 Y128.972 E0.07553
G1 X76.792 Y126.969 E0.06985
G1 X76.357 Y124.772 E0.07022
G1 X76.357 Y84.862 E1.25135
G1 X77.011 Y82.286 E0.08333
G1 X78.242 Y80.273 E0.07399
G1 X79.871 Y78.725 E0.07045
G1 X80.516 Y78.357 E0.02329
G1 X80.533 Y68.118 E0.32103
G1 X81.168 Y65.651 E0.07988
G1 X82.528 Y63.473 E0.08052
G1 X83.499 Y62.518 E0.04269
G1 X84.599 Y61.690 E0.04317
G1 X88.148 Y60.516 E0.11721
G1 X161.676 Y60.519 E2.30541
G1 X163.802 Y60.954 E0.06804
G1 X165.731 Y61.921 E0.06765
G1 X167.448 Y63.460 E0.07230
G1 X168.729 Y65.417 E0.07333
G1 X169.454 Y68.000 E0.08410
G1 X169.476 Y78.343 E0.32431
G1 X169.100 Y78.601 F10800.000
G1 F600.000
G1 X170.303 Y79.435 E0.04591
G1 X171.638 Y80.845 E0.06086
G1 X172.697 Y82.740 E0.06808
G1 X173.266 Y85.136 E0.07720
G1 X173.266 Y125.114 E1.25349
G1 X172.631 Y127.592 E0.08021
G1 X171.450 Y129.507 E0.07055
G1 X169.888 Y130.984 E0.06740
G1 X169.107 Y131.420 E0.02805
G1 X169.096 Y141.811 E0.32578
M73 Q1 S270
M73 P1 R269
G1 X168.474 Y144.227 E0.07822
G1 X167.192 Y146.274 E0.07574
G1 X166.264 Y147.188 E0.04084
G1 X165.199 Y147.990 E0.04180
G1 X161.822 Y149.107 E0.11151
G1 X88.281 Y149.107 E2.30582
G1 X85.828 Y148.497 E0.07928
G1 X83.726 Y147.192 E0.07758
G1 X82.812 Y146.263 E0.04086
G1 X82.039 Y145.253 E0.03988
G1 X80.923 Y142.004 E0.10772
G1 X80.893 Y131.386 E0.33291
G1 X79.630 Y130.508 E0.04822
G1 X78.095 Y128.783 E0.07240
G1 X77.142 Y126.826 E0.06826
G1 X76.734 Y124.754 E0.06621
G1 X76.734 Y84.886 E1.25003
G1 X77.369 Y82.408 E0.08021
G1 X78.550 Y80.493 E0.07055
G1 X80.112 Y79.016 E0.06740
G1 X80.893 Y78.580 E0.02805
G1 X80.904 Y68.189 E0.32578
G1 X81.526 Y65.773 E0.07822
G1 X82.808 Y63.726 E0.07574
G1 X83.736 Y62.812 E0.04084
G1 X84.801 Y62.010 E0.04180
G1 X88.178 Y60.893 E0.11152
G1 X161.657 Y60.896 E2.30388
G1 X163.657 Y61.303 E0.06398
G1 X165.499 Y62.218 E0.06449
G1 X167.178 Y63.724 E0.07071
G1 X168.397 Y65.598 E0.07011
G1 X169.077 Y68.026 E0.07904
G1 X169.100 Y78.541 E0.32970
G1 X168.723 Y78.800 F10800.000
G1 F600.000
G1 X170.044 Y79.710 E0.05029
G1 X171.321 Y81.051 E0.05806
G1 X172.336 Y82.854 E0.06490
G1 X172.889 Y85.158 E0.07429
G1 X172.889 Y125.090 E1.25203
G1 X172.274 Y127.469 E0.07707
G1 X171.143 Y129.287 E0.06711
G1 X169.648 Y130.692 E0.06434
G1 X168.730 Y131.196 E0.03283
G1 X168.725 Y141.741 E0.33063
G1 X168.139 Y144.053 E0.07477
G1 X166.911 Y146.021 E0.07275
G1 X166.025 Y146.896 E0.03904
G1 X165.049 Y147.642 E0.03852
G1 X161.791 Y148.730 E0.10767
G1 X88.304 Y148.730 E2.30414
G1 X86.001 Y148.161 E0.07440
G1 X83.978 Y146.911 E0.07455
G1 X83.104 Y146.025 E0.03903
G1 X82.357 Y145.048 E0.03853
G1 X81.290 Y141.912 E0.10389
G1 X81.270 Y131.188 E0.33625
G1 X79.896 Y130.239 E0.05234
G1 X78.422 Y128.593 E0.06928
G1 X77.506 Y126.728 E0.06515
G1 X77.111 Y124.735 E0.06370
G1 X77.111 Y84.910 E1.24869
G1 X77.726 Y82.531 E0.07707
G1 X78.857 Y80.713 E0.06711
G1 X80.352 Y79.308 E0.06434
G1 X81.270 Y78.804 E0.03283
G1 X81.275 Y68.259 E0.33062
G1 X81.861 Y65.947 E0.07477
G1 X83.089 Y63.979 E0.07275
G1 X83.975 Y63.104 E0.03904
G1 X84.951 Y62.358 E0.03852
G1 X88.209 Y61.270 E0.10768
G1 X161.638 Y61.274 E2.30231
M73 Q1 S269
M73 P1 R268
G1 X163.557 Y61.668 E0.06142
G1 X165.267 Y62.517 E0.05987
G1 X166.875 Y63.951 E0.06757
G1 X168.065 Y65.780 E0.06841
G1 X168.699 Y68.052 E0.07397
G1 X168.723 Y78.740 E0.33511
G1 X168.347 Y79.053 F10800.000
G1 F600.000
G1 X168.569 Y79.152 E0.00761
G1 X169.786 Y79.985 E0.04625
G1 X171.005 Y81.257 E0.05526
G1 X171.976 Y82.969 E0.06170
G1 X172.512 Y85.181 E0.07135
G1 X172.512 Y125.065 E1.25055
G1 X171.916 Y127.346 E0.07390
G1 X170.837 Y129.065 E0.06365
G1 X169.409 Y130.400 E0.06129
G1 X168.353 Y130.971 E0.03764
G1 X168.353 Y141.673 E0.33555
G1 X167.802 Y143.879 E0.07131
G1 X166.630 Y145.769 E0.06974
G1 X165.786 Y146.604 E0.03721
G1 X164.844 Y147.324 E0.03716
G1 X161.761 Y148.353 E0.10192
G1 X88.327 Y148.353 E2.30246
G1 X86.121 Y147.802 E0.07131
G1 X84.231 Y146.630 E0.06974
G1 X83.396 Y145.786 E0.03721
G1 X82.676 Y144.844 E0.03717
G1 X81.657 Y141.821 E0.10004
G1 X81.647 Y130.951 E0.34081
G1 X81.476 Y130.871 E0.00591
G1 X80.161 Y129.970 E0.04999
G1 X78.748 Y128.403 E0.06616
G1 X77.871 Y126.630 E0.06202
G1 X77.488 Y124.717 E0.06117
G1 X77.488 Y84.935 E1.24734
G1 X78.084 Y82.654 E0.07390
G1 X79.163 Y80.935 E0.06365
G1 X80.591 Y79.600 E0.06129
G1 X81.647 Y79.029 E0.03764
G1 X81.647 Y68.327 E0.33555
G1 X82.198 Y66.121 E0.07131
G1 X83.370 Y64.231 E0.06974
G1 X84.214 Y63.396 E0.03721
G1 X85.156 Y62.676 E0.03716
G1 X88.239 Y61.647 E0.10193
G1 X161.619 Y61.651 E2.30076
G1 X163.412 Y62.017 E0.05739
G1 X165.035 Y62.816 E0.05671
G1 X166.605 Y64.215 E0.06596
G1 X167.733 Y65.960 E0.06514
G1 X168.322 Y68.078 E0.06894
G1 X168.346 Y78.993 E0.34224
G1 X167.970 Y79.312 F10800.000
G1 F600.000
G1 X168.376 Y79.476 E0.01372
G1 X169.528 Y80.261 E0.04372
G1 X170.690 Y81.465 E0.05247
G1 X171.616 Y83.085 E0.05850
G1 X172.135 Y85.204 E0.06839
G1 X172.135 Y125.041 E1.24907
G1 X171.559 Y127.221 E0.07070
G1 X170.532 Y128.842 E0.06018
G1 X169.171 Y130.106 E0.05825
G1 X167.976 Y130.744 E0.04247
G1 X167.976 Y141.650 E0.34195
G1 X167.466 Y143.706 E0.06644
G1 X166.348 Y145.518 E0.06673
G1 X165.547 Y146.312 E0.03536
G1 X164.640 Y147.005 E0.03580
G1 X161.731 Y147.976 E0.09617
G1 X88.350 Y147.976 E2.30079
G1 X86.294 Y147.466 E0.06644
G1 X84.482 Y146.348 E0.06673
G1 X83.688 Y145.547 E0.03536
G1 X82.995 Y144.640 E0.03580
G1 X82.024 Y141.731 E0.09617
G1 X82.024 Y130.691 E0.34614
G1 X81.668 Y130.546 E0.01207
G1 X80.424 Y129.700 E0.04715
G1 X79.074 Y128.211 E0.06304
G1 X78.236 Y126.530 E0.05888
G1 X77.865 Y124.698 E0.05862
G1 X77.865 Y84.959 E1.24597
G1 X78.441 Y82.779 E0.07070
G1 X79.468 Y81.158 E0.06018
G1 X80.829 Y79.894 E0.05825
G1 X82.024 Y79.256 E0.04247
G1 X82.024 Y68.350 E0.34195
G1 X82.534 Y66.294 E0.06644
G1 X83.652 Y64.482 E0.06673
M73 Q1 S268
M73 P1 R267
G1 X84.453 Y63.688 E0.03536
G1 X85.360 Y62.995 E0.03580
G1 X88.270 Y62.024 E0.09618
G1 X161.600 Y62.028 E2.29922
G1 X163.269 Y62.366 E0.05339
G1 X164.805 Y63.115 E0.05358
G1 X166.303 Y64.442 E0.06274
G1 X167.401 Y66.141 E0.06342
G1 X167.945 Y68.104 E0.06389
G1 X167.970 Y79.252 E0.34952
G1 X167.594 Y79.572 F10800.000
G1 F600.000
G1 X168.182 Y79.801 E0.01981
G1 X169.300 Y80.562 E0.04240
G1 X170.375 Y81.674 E0.04851
G1 X171.257 Y83.202 E0.05530
G1 X171.758 Y85.227 E0.06541
G1 X171.758 Y125.016 E1.24756
G1 X171.203 Y127.095 E0.06747
G1 X170.228 Y128.618 E0.05670
G1 X168.934 Y129.812 E0.05521
G1 X167.599 Y130.516 E0.04732
G1 X167.599 Y141.626 E0.34836
G1 X167.108 Y143.586 E0.06335
G1 X166.066 Y145.266 E0.06196
G1 X165.308 Y146.020 E0.03353
G1 X164.436 Y146.687 E0.03443
G1 X161.700 Y147.599 E0.09042
G1 X88.374 Y147.599 E2.29910
G1 X86.414 Y147.108 E0.06335
G1 X84.734 Y146.066 E0.06196
G1 X83.980 Y145.308 E0.03353
G1 X83.313 Y144.436 E0.03443
G1 X82.401 Y141.700 E0.09042
G1 X82.401 Y130.430 E0.35336
G1 X81.861 Y130.221 E0.01818
G1 X80.655 Y129.400 E0.04572
G1 X79.399 Y128.018 E0.05856
G1 X78.600 Y126.429 E0.05575
G1 X78.242 Y124.678 E0.05604
G1 X78.242 Y84.984 E1.24459
G1 X78.797 Y82.905 E0.06747
G1 X79.772 Y81.382 E0.05670
G1 X81.066 Y80.188 E0.05521
G1 X82.401 Y79.484 E0.04732
G1 X82.401 Y68.374 E0.34836
G1 X82.892 Y66.414 E0.06335
G1 X83.934 Y64.734 E0.06196
G1 X84.692 Y63.980 E0.03353
G1 X85.564 Y63.313 E0.03443
G1 X88.300 Y62.401 E0.09043
G1 X161.581 Y62.405 E2.29767
G1 X163.170 Y62.731 E0.05086
G1 X164.574 Y63.414 E0.04897
G1 X166.033 Y64.707 E0.06111
G1 X167.068 Y66.320 E0.06010
G1 X167.568 Y68.130 E0.05889
G1 X167.593 Y79.512 E0.35686
G1 X167.217 Y79.834 F10800.000
G1 F600.000
G1 X167.989 Y80.126 E0.02588
G1 X169.072 Y80.863 E0.04107
G1 X170.061 Y81.884 E0.04458
G1 X170.898 Y83.320 E0.05210
G1 X171.381 Y85.250 E0.06239
G1 X171.381 Y124.991 E1.24604
G1 X170.847 Y126.967 E0.06420
G1 X169.925 Y128.393 E0.05321
G1 X168.698 Y129.517 E0.05218
G1 X167.222 Y130.287 E0.05220
G1 X167.222 Y141.603 E0.35483
G1 X166.771 Y143.413 E0.05848
G1 X165.784 Y145.015 E0.05897
G1 X165.067 Y145.730 E0.03177
G1 X164.284 Y146.340 E0.03111
G1 X161.669 Y147.222 E0.08653
G1 X88.397 Y147.222 E2.29741
G1 X86.587 Y146.771 E0.05848
G1 X84.985 Y145.784 E0.05897
G1 X84.270 Y145.067 E0.03177
G1 X83.660 Y144.284 E0.03111
G1 X82.778 Y141.669 E0.08653
G1 X82.778 Y130.167 E0.36063
M73 Q2 S267
M73 P2 R266
G1 X82.053 Y129.896 E0.02428
G1 X80.886 Y129.101 E0.04427
G1 X79.696 Y127.784 E0.05566
G1 X78.964 Y126.329 E0.05108
G1 X78.619 Y124.659 E0.05346
G1 X78.619 Y85.009 E1.24319
G1 X79.153 Y83.032 E0.06420
G1 X80.075 Y81.607 E0.05321
G1 X81.302 Y80.483 E0.05218
G1 X82.778 Y79.713 E0.05220
G1 X82.778 Y68.397 E0.35483
G1 X83.229 Y66.587 E0.05848
