; generated by PrusaSlicer 2.2.0+win64 on 2021-01-17 at 18:45:17 UTC

; 

; external perimeters extrusion width = 0.45mm
; perimeters extrusion width = 0.45mm
; infill extrusion width = 0.45mm
; solid infill extrusion width = 0.45mm
; top infill extrusion width = 0.40mm
; first layer extrusion width = 0.42mm

M73 P0 R109
M73 Q0 S113
M201 X1000 Y1000 Z200 E5000 ; sets maximum accelerations, mm/sec^2
M203 X200 Y200 Z12 E120 ; sets maximum feedrates, mm/sec
M204 P1250 R1250 T1250 ; sets acceleration (P, T) and retract acceleration (R), mm/sec^2
M205 X8.00 Y8.00 Z0.40 E4.50 ; sets the jerk limits, mm/sec
M205 S0 T0 ; sets the minimum extruding and travel feed rate, mm/sec
M107
M862.3 P "MK3S" ; printer model check
M862.1 P0.4 ; nozzle diameter check
M115 U3.9.2 ; tell printer latest fw version
G90 ; use absolute coordinates
M83 ; extruder relative mode
M104 S215 ; set extruder temp
M140 S60 ; set bed temp
M190 S60 ; wait for bed temp
M109 S215 ; wait for extruder temp
G28 W ; home all without mesh bed level
G80 ; mesh bed leveling
G1 Y-3.0 F1000.0 ; go outside print area
G92 E0.0
G1 X60.0 E9.0 F1000.0 ; intro line
M73 Q0 S113
M73 P0 R109
G1 X100.0 E12.5 F1000.0 ; intro line
G92 E0.0
M221 S95

; Don't change E values below. Excessive value can damage the printer.

M907 E538 ; set extruder motor current
G21 ; set units to millimeters
G90 ; use absolute coordinates
M83 ; use relative distances for extrusion
M900 K0.05 ; Filament gcode LA 1.5
M900 K30 ; Filament gcode LA 1.0
;BEFORE_LAYER_CHANGE
G92 E0.0
;0.2


G1 E-0.80000 F2100.00000
G1 Z0.400 F10800.000
;AFTER_LAYER_CHANGE
;0.2
G1 X63.875 Y25.039
G1 Z0.200
G1 E0.80000 F2100.00000
M204 S1000
G1 F1200.000
G1 X64.364 Y24.390 E0.02548
G1 X64.885 Y23.960 E0.02120
G1 X65.320 Y23.717 E0.01562
G1 X65.932 Y23.499 E0.02036
G1 X66.656 Y23.409 E0.02287
G1 X137.193 Y23.409 E2.21163
G1 X137.718 Y23.468 E0.01657
G1 X138.216 Y23.642 E0.01657
G1 X139.161 Y24.353 E0.03707
G1 X139.587 Y24.918 E0.02218
G1 X139.859 Y25.505 E0.02027
G1 X140.065 Y26.596 E0.03482
G1 X139.932 Y96.685 E2.19759
G1 X139.723 Y97.781 E0.03498
G1 X139.454 Y98.346 E0.01964
G1 X139.013 Y98.913 E0.02251
G1 X138.486 Y99.349 E0.02143
G1 X138.047 Y99.592 E0.01574
G1 X137.431 Y99.808 E0.02048
G1 X136.691 Y99.895 E0.02334
G1 X66.658 Y99.895 E2.19584
G1 X65.560 Y99.686 E0.03506
G1 X64.994 Y99.417 E0.01964
G1 X64.427 Y98.976 E0.02251
G1 X63.891 Y98.292 E0.02725
G1 X63.560 Y97.505 E0.02678
G1 X59.049 Y79.863 E0.57095
G1 X58.946 Y78.973 E0.02809
G1 X58.957 Y44.098 E1.09347
G1 X59.050 Y43.435 E0.02099
G1 X63.560 Y25.798 E0.57078
G1 X63.852 Y25.095 E0.02389
G1 F8640.000
G1 X64.364 Y24.390 E-0.20108
G1 X64.885 Y23.960 E-0.15611
G1 X65.320 Y23.717 E-0.11500
G1 X65.932 Y23.499 E-0.14993
G1 X66.524 Y23.425 E-0.13787
G1 E-0.04000 F2100.00000
G1 Z0.600 F10800.000
G1 X141.722 Y54.402
G1 Z0.200
G1 E0.80000 F2100.00000
G1 F1200.000
G1 X141.722 Y70.328 E0.49934
G1 X143.629 Y71.789 E0.07531
G1 X145.218 Y73.766 E0.07952
G1 X146.293 Y76.204 E0.08355
G1 X146.717 Y78.818 E0.08303
G1 X146.690 Y97.415 E0.58311
G1 X146.437 Y99.032 E0.05131
G1 X145.935 Y100.597 E0.05152
G1 X143.931 Y103.587 E0.11288
G1 X142.346 Y104.937 E0.06529
G1 X140.576 Y105.916 E0.06343
G1 X137.154 Y106.685 E0.10996
G1 X66.389 Y106.685 E2.21880
G1 X64.588 Y106.463 E0.05688
G1 X62.851 Y105.937 E0.05691
G1 X60.033 Y104.175 E0.10421
G1 X59.616 Y103.729 E0.01914
G1 X57.633 Y100.985 E0.10617
G1 X56.930 Y98.984 E0.06650
G1 X56.680 Y97.335 E0.05228
G1 X56.654 Y86.662 E0.33464
G1 X54.969 Y85.237 E0.06919
G1 X53.579 Y83.401 E0.07221
G1 X52.587 Y81.112 E0.07822
G1 X52.172 Y78.684 E0.07724
G1 X52.196 Y44.365 E1.07604
G1 X52.555 Y42.307 E0.06549
G1 X53.366 Y40.283 E0.06838
G1 X54.775 Y38.275 E0.07693
G1 X56.654 Y36.643 E0.07803
G1 X56.689 Y25.863 E0.33797
G1 X56.942 Y24.268 E0.05065
G1 X57.494 Y22.598 E0.05514
G1 X59.447 Y19.715 E0.10920
G1 X61.033 Y18.366 E0.06527
G1 X62.803 Y17.386 E0.06344
G1 X66.224 Y16.618 E0.10992
G1 X138.484 Y16.627 E2.26567
G1 X142.375 Y17.857 E0.12794
G1 X143.811 Y18.882 E0.05532
G1 X145.049 Y20.110 E0.05466
G1 X146.621 Y22.909 E0.10065
G1 X147.291 Y26.064 E0.10114
G1 X147.301 Y45.601 E0.61257
G1 X147.032 Y47.710 E0.06666
G1 X146.037 Y50.381 E0.08937
G1 X144.604 Y52.389 E0.07735
G1 X142.849 Y53.847 E0.07155
G1 X141.776 Y54.376 E0.03749
G1 X141.345 Y54.166 F10800.000
G1 F1200.000
G1 X141.345 Y70.585 E0.51481
G1 X141.643 Y70.733 E0.01043
G1 X143.350 Y72.043 E0.06746
G1 X144.883 Y73.941 E0.07651
G1 X145.924 Y76.289 E0.08051
G1 X146.340 Y78.833 E0.08082
G1 X146.316 Y97.371 E0.58125
G1 X146.066 Y98.959 E0.05039
G1 X145.585 Y100.455 E0.04931
G1 X143.633 Y103.355 E0.10958
G1 X142.117 Y104.637 E0.06226
G1 X140.418 Y105.573 E0.06084
G1 X137.134 Y106.308 E0.10552
G1 X66.401 Y106.308 E2.21778
G1 X64.651 Y106.091 E0.05527
G1 X62.985 Y105.584 E0.05461
G1 X60.291 Y103.899 E0.09963
G1 X59.914 Y103.498 E0.01723
G1 X57.955 Y100.786 E0.10491
G1 X57.300 Y98.910 E0.06231
G1 X57.057 Y97.320 E0.05043
G1 X57.030 Y86.426 E0.34157
G1 X56.796 Y86.290 E0.00849
G1 X55.257 Y84.992 E0.06315
G1 X53.915 Y83.229 E0.06944
G1 X52.955 Y81.025 E0.07539
G1 X52.549 Y78.668 E0.07501
G1 X52.570 Y44.413 E1.07403
G1 X52.912 Y42.428 E0.06315
G1 X53.688 Y40.481 E0.06570
G1 X55.071 Y38.510 E0.07552
G1 X56.757 Y37.041 E0.07010
G1 X57.030 Y36.882 E0.00993
G1 X57.066 Y25.879 E0.34497
G1 X57.312 Y24.342 E0.04881
G1 X57.822 Y22.788 E0.05129
G1 X59.745 Y19.948 E0.10755
G1 X61.261 Y18.666 E0.06226
G1 X62.962 Y17.730 E0.06086
G1 X66.245 Y16.995 E0.10548
G1 X138.455 Y17.004 E2.26412
G1 X142.180 Y18.181 E0.12249
G1 X143.556 Y19.161 E0.05296
G1 X144.764 Y20.359 E0.05334
G1 X146.278 Y23.067 E0.09728
G1 X146.914 Y26.084 E0.09665
G1 X146.924 Y45.589 E0.61158
G1 X146.661 Y47.640 E0.06484
G1 X145.693 Y50.225 E0.08654
G1 X144.312 Y52.149 E0.07425
G1 X142.626 Y53.542 E0.06857
G1 X141.399 Y54.140 E0.04280
G1 X140.968 Y53.929 F10800.000
G1 F1200.000
G1 X140.968 Y70.826 E0.52979
G1 X141.430 Y71.046 E0.01606
G1 X143.103 Y72.329 E0.06609
G1 X144.549 Y74.118 E0.07213
G1 X145.556 Y76.374 E0.07748
G1 X145.963 Y78.848 E0.07860
G1 X145.941 Y97.327 E0.57941
G1 X145.703 Y98.857 E0.04854
G1 X145.234 Y100.314 E0.04799
G1 X143.336 Y103.122 E0.10625
G1 X141.889 Y104.336 E0.05922
G1 X140.260 Y105.230 E0.05827
G1 X137.113 Y105.931 E0.10109
G1 X66.412 Y105.931 E2.21678
M73 Q0 S112
M73 P0 R108
G1 X64.745 Y105.725 E0.05265
G1 X63.119 Y105.230 E0.05332
G1 X60.548 Y103.622 E0.09507
G1 X60.213 Y103.267 E0.01531
G1 X58.277 Y100.588 E0.10364
G1 X57.670 Y98.836 E0.05814
G1 X57.434 Y97.305 E0.04857
G1 X57.407 Y86.202 E0.34813
G1 X57.024 Y85.989 E0.01374
G1 X55.515 Y84.717 E0.06187
G1 X54.251 Y83.057 E0.06541
G1 X53.322 Y80.938 E0.07256
G1 X52.926 Y78.651 E0.07276
G1 X52.944 Y44.460 E1.07204
G1 X53.270 Y42.548 E0.06082
G1 X54.009 Y40.679 E0.06303
G1 X55.336 Y38.779 E0.07266
G1 X56.989 Y37.340 E0.06871
G1 X57.407 Y37.105 E0.01503
G1 X57.443 Y25.896 E0.35148
G1 X57.682 Y24.416 E0.04698
G1 X58.149 Y22.976 E0.04747
G1 X60.008 Y20.219 E0.10427
G1 X61.490 Y18.966 E0.06084
G1 X63.119 Y18.073 E0.05825
G1 X66.265 Y17.372 E0.10106
G1 X138.426 Y17.381 E2.26257
G1 X141.986 Y18.506 E0.11704
G1 X143.325 Y19.459 E0.05154
G1 X144.480 Y20.608 E0.05107
G1 X145.915 Y23.174 E0.09218
G1 X146.537 Y26.104 E0.09392
G1 X146.547 Y45.577 E0.61058
G1 X146.290 Y47.570 E0.06300
G1 X145.349 Y50.068 E0.08370
G1 X144.021 Y51.908 E0.07114
G1 X142.405 Y53.236 E0.06558
G1 X141.022 Y53.903 E0.04813
G1 X140.591 Y53.691 F10800.000
G1 F1200.000
G1 X140.591 Y71.068 E0.54486
G1 X141.218 Y71.358 E0.02167
G1 X142.855 Y72.614 E0.06468
G1 X144.240 Y74.335 E0.06925
G1 X145.202 Y76.505 E0.07442
G1 X145.586 Y78.863 E0.07491
G1 X145.566 Y97.284 E0.57760
G1 X145.339 Y98.756 E0.04669
G1 X144.883 Y100.173 E0.04668
G1 X143.073 Y102.850 E0.10132
G1 X141.692 Y104.015 E0.05665
G1 X140.102 Y104.886 E0.05683
G1 X137.092 Y105.554 E0.09667
G1 X66.424 Y105.554 E2.21577
G1 X64.808 Y105.353 E0.05104
G1 X63.253 Y104.877 E0.05101
G1 X60.805 Y103.344 E0.09056
G1 X60.511 Y103.036 E0.01337
G1 X58.599 Y100.390 E0.10235
G1 X58.040 Y98.762 E0.05398
G1 X57.811 Y97.290 E0.04671
G1 X57.783 Y85.975 E0.35475
G1 X57.251 Y85.688 E0.01896
G1 X55.774 Y84.442 E0.06058
G1 X54.587 Y82.884 E0.06140
G1 X53.690 Y80.850 E0.06972
G1 X53.303 Y78.635 E0.07050
G1 X53.319 Y44.507 E1.07005
G1 X53.629 Y42.667 E0.05851
G1 X54.332 Y40.875 E0.06035
G1 X55.602 Y39.048 E0.06978
G1 X57.220 Y37.638 E0.06729
G1 X57.783 Y37.331 E0.02011
G1 X57.818 Y25.941 E0.35713
G1 X58.052 Y24.491 E0.04605
G1 X58.499 Y23.119 E0.04526
G1 X60.305 Y20.452 E0.10097
G1 X61.718 Y19.267 E0.05780
G1 X63.276 Y18.417 E0.05567
G1 X66.286 Y17.750 E0.09665
G1 X138.398 Y17.758 E2.26102
G1 X141.792 Y18.830 E0.11161
G1 X143.070 Y19.738 E0.04916
G1 X144.195 Y20.856 E0.04973
G1 X145.571 Y23.332 E0.08881
G1 X146.160 Y26.123 E0.08945
G1 X146.170 Y45.565 E0.60958
G1 X145.919 Y47.499 E0.06116
G1 X145.006 Y49.911 E0.08085
G1 X143.730 Y51.666 E0.06803
G1 X142.184 Y52.929 E0.06260
G1 X140.645 Y53.665 E0.05348
G1 X140.214 Y53.452 F10800.000
G1 F1200.000
G1 X140.214 Y71.313 E0.56002
G1 X141.007 Y71.671 E0.02728
G1 X142.607 Y72.899 E0.06326
G1 X143.930 Y74.551 E0.06634
G1 X144.847 Y76.634 E0.07137
G1 X145.209 Y78.877 E0.07124
G1 X145.191 Y97.242 E0.57580
G1 X144.976 Y98.655 E0.04482
G1 X144.533 Y100.032 E0.04535
G1 X142.776 Y102.616 E0.09797
G1 X141.464 Y103.713 E0.05362
G1 X139.945 Y104.542 E0.05427
G1 X137.072 Y105.177 E0.09226
G1 X66.436 Y105.177 E2.21475
G1 X64.872 Y104.981 E0.04942
G1 X63.387 Y104.524 E0.04870
G1 X61.060 Y103.066 E0.08610
G1 X60.808 Y102.804 E0.01140
G1 X58.921 Y100.192 E0.10103
G1 X58.410 Y98.687 E0.04983
G1 X58.188 Y97.274 E0.04486
G1 X58.160 Y85.747 E0.36142
G1 X57.478 Y85.386 E0.02418
G1 X56.034 Y84.167 E0.05926
G1 X54.901 Y82.675 E0.05874
G1 X54.044 Y80.720 E0.06692
G1 X53.680 Y78.619 E0.06685
G1 X53.693 Y44.554 E1.06810
G1 X53.987 Y42.785 E0.05620
G1 X54.655 Y41.071 E0.05768
G1 X55.867 Y39.316 E0.06687
G1 X57.451 Y37.937 E0.06585
G1 X58.160 Y37.559 E0.02519
G1 X58.192 Y25.986 E0.36285
G1 X58.415 Y24.594 E0.04420
G1 X58.850 Y23.261 E0.04395
G1 X60.602 Y20.687 E0.09764
G1 X61.944 Y19.569 E0.05476
G1 X63.433 Y18.761 E0.05311
G1 X66.306 Y18.127 E0.09226
G1 X138.369 Y18.135 E2.25947
G1 X141.598 Y19.155 E0.10617
G1 X142.839 Y20.036 E0.04774
G1 X143.910 Y21.104 E0.04741
G1 X145.227 Y23.489 E0.08544
G1 X145.783 Y26.143 E0.08501
G1 X145.793 Y45.553 E0.60859
G1 X145.548 Y47.428 E0.05931
G1 X144.662 Y49.753 E0.07798
G1 X143.441 Y51.424 E0.06490
G1 X141.965 Y52.622 E0.05961
G1 X140.268 Y53.426 E0.05886
G1 X140.203 Y53.040 F10800.000
G1 F1200.000
G1 X141.746 Y52.314 E0.05346
G1 X143.152 Y51.180 E0.05663
G1 X144.320 Y49.593 E0.06176
G1 X145.177 Y47.357 E0.07510
G1 X145.416 Y45.541 E0.05744
G1 X145.406 Y26.163 E0.60758
G1 X144.864 Y23.595 E0.08229
G1 X143.625 Y21.352 E0.08034
G1 X142.584 Y20.314 E0.04607
G1 X141.404 Y19.480 E0.04532
G1 X138.340 Y18.512 E0.10075
G1 X66.326 Y18.504 E2.25793
G1 X63.588 Y19.106 E0.08789
G1 X62.170 Y19.872 E0.05057
G1 X60.898 Y20.922 E0.05171
G1 X59.200 Y23.404 E0.09429
G1 X58.778 Y24.696 E0.04263
G1 X58.567 Y26.030 E0.04235
G1 X58.536 Y37.788 E0.36865
G1 X57.682 Y38.236 E0.03026
G1 X56.133 Y39.585 E0.06438
G1 X54.978 Y41.266 E0.06395
G1 X54.346 Y42.903 E0.05502
G1 X54.068 Y44.599 E0.05391
G1 X54.057 Y78.603 E1.06615
G1 X54.412 Y80.632 E0.06461
G1 X55.216 Y82.465 E0.06275
G1 X56.293 Y83.893 E0.05607
G1 X57.705 Y85.084 E0.05792
G1 X58.536 Y85.517 E0.02939
G1 X58.566 Y97.258 E0.36814
G1 X58.780 Y98.613 E0.04301
G1 X59.244 Y99.995 E0.04570
G1 X61.106 Y102.572 E0.09968
G1 X61.315 Y102.787 E0.00941
G1 X63.522 Y104.171 E0.08168
G1 X64.967 Y104.616 E0.04740
G1 X66.447 Y104.800 E0.04677
G1 X137.052 Y104.800 E2.21375
G1 X139.789 Y104.198 E0.08787
G1 X141.238 Y103.411 E0.05172
G1 X142.480 Y102.381 E0.05058
G1 X144.182 Y99.890 E0.09461
G1 X144.605 Y98.583 E0.04306
G1 X144.816 Y97.199 E0.04389
G1 X144.832 Y78.892 E0.57399
M73 Q1 S111
M73 P1 R107
G1 X144.478 Y76.718 E0.06906
G1 X143.620 Y74.766 E0.06686
G1 X142.359 Y73.184 E0.06342
G1 X140.795 Y71.984 E0.06181
G1 X140.168 Y71.706 E0.02153
G1 X140.167 Y72.115 F10800.000
G1 F1200.000
G1 X140.584 Y72.298 E0.01428
G1 X142.111 Y73.469 E0.06034
G1 X143.309 Y74.981 E0.06047
G1 X144.123 Y76.847 E0.06384
G1 X144.455 Y78.907 E0.06543
G1 X144.441 Y97.157 E0.57221
G1 X144.242 Y98.482 E0.04201
G1 X143.832 Y99.748 E0.04172
G1 X142.219 Y102.108 E0.08962
G1 X141.012 Y103.109 E0.04917
G1 X139.633 Y103.854 E0.04915
G1 X137.031 Y104.423 E0.08350
G1 X66.459 Y104.423 E2.21275
G1 X65.030 Y104.244 E0.04514
G1 X63.657 Y103.818 E0.04508
G1 X61.568 Y102.507 E0.07735
G1 X61.403 Y102.339 E0.00739
G1 X59.567 Y99.798 E0.09830
G1 X59.150 Y98.539 E0.04158
G1 X58.943 Y97.243 E0.04116
G1 X58.913 Y85.286 E0.37489
G1 X57.932 Y84.781 E0.03460
G1 X56.553 Y83.618 E0.05656
G1 X55.531 Y82.257 E0.05339
G1 X54.779 Y80.545 E0.05862
G1 X54.434 Y78.586 E0.06235
G1 X54.442 Y44.644 E1.06422
G1 X54.705 Y43.019 E0.05162
G1 X55.303 Y41.460 E0.05235
G1 X56.399 Y39.853 E0.06099
G1 X57.912 Y38.536 E0.06289
G1 X58.913 Y38.018 E0.03533
G1 X58.942 Y26.075 E0.37448
G1 X59.148 Y24.770 E0.04141
G1 X59.549 Y23.547 E0.04037
G1 X61.159 Y21.195 E0.08934
G1 X62.365 Y20.195 E0.04914
G1 X63.744 Y19.450 E0.04915
G1 X66.347 Y18.881 E0.08352
G1 X138.311 Y18.889 E2.25639
G1 X141.210 Y19.805 E0.09533
G1 X142.353 Y20.613 E0.04390
G1 X143.339 Y21.599 E0.04372
G1 X144.520 Y23.751 E0.07697
G1 X145.029 Y26.182 E0.07787
G1 X145.039 Y45.528 E0.60659
G1 X144.806 Y47.285 E0.05557
G1 X143.977 Y49.434 E0.07220
G1 X142.864 Y50.936 E0.05863
G1 X141.565 Y51.982 E0.05229
G1 X140.204 Y52.623 E0.04716
G1 X139.827 Y52.741 F10800.000
G1 F1200.000
G1 X139.460 Y52.821 E0.01178
G1 X139.460 Y71.806 E0.59527
G1 X139.790 Y71.951 E0.01131
G1 X139.789 Y72.359 F10800.000
G1 F1200.000
G1 X139.083 Y72.055 E0.02413
G1 X139.083 Y52.512 E0.61274
G1 X139.827 Y52.358 E0.02385
G1 X140.205 Y52.206 F10800.000
G1 F1200.000
G1 X141.384 Y51.651 E0.04086
G1 X142.576 Y50.691 E0.04798
G1 X143.635 Y49.273 E0.05550
G1 X144.435 Y47.213 E0.06929
G1 X144.662 Y45.516 E0.05368
G1 X144.652 Y26.201 E0.60559
G1 X144.176 Y23.907 E0.07348
G1 X143.053 Y21.846 E0.07357
G1 X142.098 Y20.891 E0.04235
G1 X141.017 Y20.130 E0.04146
G1 X138.282 Y19.266 E0.08993
G1 X66.367 Y19.258 E2.25485
G1 X63.899 Y19.795 E0.07917
G1 X62.590 Y20.498 E0.04661
G1 X61.454 Y21.431 E0.04609
G1 X59.899 Y23.690 E0.08598
G1 X59.511 Y24.873 E0.03903
G1 X59.317 Y26.119 E0.03952
G1 X59.289 Y38.250 E0.38038
G1 X58.142 Y38.836 E0.04040
G1 X56.665 Y40.121 E0.06138
G1 X55.627 Y41.653 E0.05801
G1 X55.065 Y43.134 E0.04969
G1 X54.817 Y44.689 E0.04935
G1 X54.811 Y78.569 E1.06230
G1 X55.147 Y80.456 E0.06009
G1 X55.846 Y82.048 E0.05452
G1 X56.812 Y83.344 E0.05069
G1 X58.158 Y84.479 E0.05518
G1 X59.289 Y85.054 E0.03980
G1 X59.317 Y97.198 E0.38076
G1 X59.520 Y98.464 E0.04021
G1 X59.915 Y99.651 E0.03922
G1 X61.698 Y102.104 E0.09511
G1 X61.819 Y102.225 E0.00534
G1 X63.793 Y103.466 E0.07311
G1 X65.095 Y103.872 E0.04275
G1 X66.471 Y104.046 E0.04350
G1 X137.011 Y104.046 E2.21174
G1 X139.478 Y103.509 E0.07915
G1 X140.787 Y102.805 E0.04661
G1 X141.924 Y101.872 E0.04611
G1 X143.482 Y99.605 E0.08622
G1 X143.878 Y98.381 E0.04036
G1 X144.066 Y97.115 E0.04010
G1 X144.078 Y78.922 E0.57045
G1 X143.768 Y76.975 E0.06182
G1 X142.997 Y75.195 E0.06082
G1 X141.862 Y73.754 E0.05750
G1 X140.374 Y72.611 E0.05884
G1 X140.166 Y72.522 E0.00708
G1 X140.165 Y72.927 F10800.000
G1 F1200.000
G1 X141.614 Y74.038 E0.05724
G1 X142.685 Y75.407 E0.05449
G1 X143.412 Y77.101 E0.05780
G1 X143.700 Y78.936 E0.05824
G1 X143.691 Y97.074 E0.56869
G1 X143.507 Y98.309 E0.03917
G1 X143.132 Y99.463 E0.03803
G1 X141.664 Y101.597 E0.08122
G1 X140.563 Y102.502 E0.04469
G1 X139.324 Y103.164 E0.04405
G1 X136.991 Y103.669 E0.07482
G1 X66.483 Y103.669 E2.21075
G1 X65.191 Y103.507 E0.04082
G1 X63.929 Y103.113 E0.04145
G1 X62.067 Y101.941 E0.06899
G1 X61.993 Y101.868 E0.00326
G1 X60.263 Y99.504 E0.09185
G1 X59.883 Y98.360 E0.03780
G1 X59.692 Y97.153 E0.03830
G1 X59.666 Y84.821 E0.38669
G1 X58.384 Y84.176 E0.04500
G1 X57.073 Y83.070 E0.05377
G1 X56.161 Y81.841 E0.04798
G1 X55.514 Y80.368 E0.05046
G1 X55.188 Y78.553 E0.05782
