;FLAVOR:Marlin
;TIME:6654
;Filament used: 8.07957m
;Layer height: 0.2
;Generated with Cura_SteamEngine 3.4.1
M190 S60
M104 S200
M109 S200
M82 ;absolute extrusion mode
G28 ;Home
G1 Z15.0 F6000 ;Move the platform down 15mm
;Prime the extruder
G92 E0
G1 F200 E3
G92 E0
G92 E0
G1 F2400 E-5
;LAYER_COUNT:75
;LAYER:0
M107
M204 S5000
M205 X30 Y30
G0 F3600 X191.391 Y68.052 Z0.2
M204 S500
M205 X20 Y20
;TYPE:SKIRT
G1 F2400 E0
G1 F1800 X191.665 Y67.392 E0.02377
G1 X192.012 Y66.766 E0.04757
G1 X192.411 Y66.202 E0.07055
G1 X192.601 Y65.962 E0.08073
G1 X193.076 Y65.426 E0.10455
G1 X193.607 Y64.948 E0.12832
G1 X194.189 Y64.531 E0.15213
G1 X194.813 Y64.182 E0.17591
G1 X195.472 Y63.905 E0.19969
G1 X196.158 Y63.703 E0.22347
G1 X196.863 Y63.579 E0.24728
G1 X197.614 Y63.534 E0.2723
G1 X268.71 Y63.481 E2.63697
G1 X269.424 Y63.52 E2.66075
G1 X270.13 Y63.639 E2.68456
G1 X270.817 Y63.836 E2.70833
G1 X271.479 Y64.109 E2.73215
G1 X272.106 Y64.453 E2.75594
G1 X272.69 Y64.865 E2.77971
G1 X273.225 Y65.34 E2.8035
G1 X273.704 Y65.872 E2.82731
G1 X274.12 Y66.453 E2.85108
G1 X274.468 Y67.078 E2.87487
G1 X274.745 Y67.737 E2.89865
G1 X274.947 Y68.424 E2.92246
G1 X275.034 Y68.868 E2.93751
G1 X275.14 Y69.529 E2.95978
G1 X275.221 Y70.548 E2.99378
G1 X275.203 Y88.998 E3.60743
G1 X275.144 Y89.858 E3.6361
G1 X274.528 Y94.367 E3.78746
G1 X274.063 Y99.654 E3.96399
G1 X273.897 Y104.955 E4.14039
G1 X274.031 Y110.239 E4.31619
G1 X274.467 Y115.543 E4.49319
G1 X275.222 Y121.153 E4.68147
G1 X275.277 Y121.866 E4.70525
G1 X275.263 Y122.464 E4.72515
G1 X274.703 Y130.281 E4.98581
G1 X274.628 Y140.363 E5.32115
G1 X274.583 Y141.077 E5.34494
G1 X274.458 Y141.781 E5.36872
G1 X274.255 Y142.467 E5.39252
G1 X273.855 Y143.364 E5.42518
G1 X273.693 Y143.663 E5.43649
G1 X273.318 Y144.272 E5.46028
G1 X272.877 Y144.835 E5.48407
G1 X272.376 Y145.345 E5.50784
G1 X271.821 Y145.797 E5.53165
G1 X271.219 Y146.183 E5.55544
G1 X270.342 Y146.596 E5.58768
G1 X270.137 Y146.674 E5.59497
G1 X269.455 Y146.89 E5.61877
G1 X268.754 Y147.029 E5.64254
G1 X267.861 Y147.092 E5.67231
G1 X197.8 Y147.095 E8.00255
G1 X197.086 Y147.055 E8.02633
G1 X196.381 Y146.936 E8.05011
G1 X195.693 Y146.738 E8.07393
G1 X195.224 Y146.554 E8.09068
G1 X194.967 Y146.441 E8.10002
G1 X194.329 Y146.117 E8.12382
G1 X193.732 Y145.723 E8.14761
G1 X193.182 Y145.266 E8.17139
G1 X192.686 Y144.75 E8.1952
G1 X192.252 Y144.182 E8.21898
G1 X192.028 Y143.829 E8.23288
G1 X191.912 Y143.632 E8.24048
G1 X191.584 Y142.997 E8.26426
G1 X191.329 Y142.328 E8.28807
G1 X191.198 Y141.855 E8.30439
G1 X189.585 Y135.022 E8.53791
G1 X188.046 Y129.957 E8.71397
G1 X186.295 Y125.153 E8.88404
G1 X186.088 Y124.468 E8.90784
G1 X185.959 Y123.765 E8.93161
G1 X185.919 Y123.336 E8.94594
G1 X185.88 Y122.671 E8.9681
G1 X185.896 Y121.707 E9.00016
G1 X186.237 Y118.019 E9.12335
G1 X186.487 Y112.664 E9.30165
G1 X186.503 Y99.659 E9.7342
G1 X186.351 Y94.307 E9.91228
G1 X185.893 Y88.844 E10.09462
G1 X185.878 Y88 E10.12269
G1 X185.909 Y87.358 E10.14407
G1 X185.984 Y86.647 E10.16785
G1 X186.137 Y85.948 E10.19165
G1 X186.277 Y85.508 E10.20701
G1 X188.325 Y79.793 E10.40893
G1 X189.814 Y74.727 E10.58455
G1 X191.192 Y68.739 E10.78892
G1 X191.391 Y68.052 E10.81271
M204 S5000
M205 X30 Y30
G0 F3600 X191.776 Y68.164
M204 S500
M205 X20 Y20
G1 F1800 X192.045 Y67.526 E10.83574
G1 X192.386 Y66.923 E10.85878
G1 X192.725 Y66.45 E10.87813
G1 X192.915 Y66.21 E10.88831
G1 X193.375 Y65.693 E10.91133
G1 X193.892 Y65.232 E10.93437
G1 X194.459 Y64.834 E10.95741
G1 X195.068 Y64.503 E10.98046
G1 X195.71 Y64.246 E11.00346
G1 X196.379 Y64.064 E11.02652
G1 X197.063 Y63.96 E11.04953
G1 X197.615 Y63.934 E11.06791
G1 X268.711 Y63.881 E13.43258
G1 X269.402 Y63.92 E13.4556
G1 X270.084 Y64.039 E13.47862
G1 X270.748 Y64.236 E13.50166
G1 X271.385 Y64.508 E13.5247
G1 X271.986 Y64.851 E13.54771
G1 X272.544 Y65.262 E13.57076
G1 X273.051 Y65.734 E13.5938
G1 X273.5 Y66.261 E13.61683
G1 X273.885 Y66.837 E13.63987
G1 X274.202 Y67.453 E13.66291
G1 X274.445 Y68.101 E13.68593
G1 X274.639 Y68.931 E13.71428
G1 X274.745 Y69.592 E13.73655
G1 X274.821 Y70.548 E13.76844
G1 X274.803 Y88.998 E14.38209
G1 X274.748 Y89.804 E14.40896
G1 X274.131 Y94.32 E14.56056
G1 X273.663 Y99.642 E14.73826
G1 X273.496 Y104.952 E14.91495
G1 X273.632 Y110.265 E15.09172
G1 X274.069 Y115.591 E15.26946
G1 X274.825 Y121.207 E15.45794
G1 X274.878 Y121.897 E15.48095
G1 X274.864 Y122.435 E15.49885
G1 X274.304 Y130.265 E15.75995
G1 X274.228 Y140.36 E16.09572
G1 X274.183 Y141.051 E16.11875
G1 X274.058 Y141.732 E16.14178
G1 X273.856 Y142.395 E16.16483
G1 X273.503 Y143.173 E16.19324
G1 X273.341 Y143.472 E16.20455
G1 X272.977 Y144.061 E16.22758
G1 X272.547 Y144.604 E16.25062
G1 X272.057 Y145.094 E16.27367
G1 X271.515 Y145.524 E16.29668
G1 X270.926 Y145.889 E16.31973
G1 X270.2 Y146.222 E16.34629
G1 X269.995 Y146.3 E16.35359
G1 X269.334 Y146.508 E16.37664
G1 X268.654 Y146.639 E16.39967
G1 X267.861 Y146.692 E16.4261
G1 X197.8 Y146.695 E18.75634
G1 X197.109 Y146.655 E18.77936
G1 X196.427 Y146.536 E18.80239
G1 X195.763 Y146.339 E18.82542
G1 X195.385 Y146.188 E18.83896
G1 X195.128 Y146.075 E18.8483
G1 X194.511 Y145.76 E18.87134
G1 X193.935 Y145.376 E18.89437
G1 X193.406 Y144.928 E18.91742
G1 X192.933 Y144.422 E18.94046
G1 X192.373 Y143.626 E18.97283
G1 X192.257 Y143.429 E18.98043
G1 X191.94 Y142.813 E19.00348
G1 X191.697 Y142.165 E19.02649
G1 X191.587 Y141.763 E19.04036
G1 X189.968 Y134.906 E19.27469
G1 X188.428 Y129.835 E19.45096
G1 X186.671 Y125.016 E19.62156
G1 X186.472 Y124.353 E19.64459
G1 X186.35 Y123.671 E19.66763
G1 X186.318 Y123.312 E19.67962
G1 X186.279 Y122.647 E19.70177
G1 X186.294 Y121.744 E19.73181
G1 X186.637 Y118.031 E19.85583
G1 X186.887 Y112.684 E20.03387
G1 X186.903 Y99.682 E20.46632
G1 X186.75 Y94.262 E20.64666
G1 X186.292 Y88.811 E20.8286
G1 X186.278 Y88.02 E20.85491
G1 X186.309 Y87.378 E20.87629
G1 X186.382 Y86.689 E20.89933
G1 X186.534 Y86.013 E20.92238
G1 X186.654 Y85.643 E20.93532
G1 X188.705 Y79.92 E21.13752
G1 X190.202 Y74.829 E21.31401
G1 X191.582 Y68.829 E21.51878
G1 X191.776 Y68.164 E21.54182
M204 S5000
M205 X30 Y30
G0 F3600 X192.16 Y68.277
M204 S500
M205 X20 Y20
G1 F1800 X192.424 Y67.662 E21.56408
G1 X192.759 Y67.083 E21.58633
G1 X193.038 Y66.698 E21.60215
G1 X193.228 Y66.458 E21.61233
G1 X193.674 Y65.959 E21.63459
G1 X194.176 Y65.517 E21.65683
G1 X194.728 Y65.138 E21.67911
G1 X195.32 Y64.828 E21.70133
G1 X195.946 Y64.59 E21.72361
G1 X196.595 Y64.428 E21.74585
G1 X197.259 Y64.346 E21.76811
G1 X197.615 Y64.334 E21.77995
G1 X268.711 Y64.281 E24.14462
G1 X269.379 Y64.32 E24.16687
G1 X270.037 Y64.439 E24.18911
G1 X270.677 Y64.636 E24.21139
G1 X271.288 Y64.907 E24.23362
G1 X271.863 Y65.25 E24.25589
G1 X272.393 Y65.658 E24.27813
G1 X272.87 Y66.127 E24.30038
G1 X273.288 Y66.649 E24.32262
G1 X273.641 Y67.217 E24.34487
G1 X273.924 Y67.824 E24.36714
G1 X274.132 Y68.46 E24.3894
G1 X274.244 Y68.994 E24.40754
G1 X274.35 Y69.655 E24.42981
G1 X274.421 Y70.547 E24.45957
G1 X274.403 Y88.997 E25.07322
G1 X274.351 Y89.75 E25.09833
G1 X273.733 Y94.272 E25.25013
G1 X273.263 Y99.612 E25.42842
G1 X273.096 Y104.935 E25.60555
G1 X273.232 Y110.29 E25.78372
G1 X273.67 Y115.618 E25.96153
G1 X274.429 Y121.26 E26.15087
G1 X274.478 Y121.927 E26.17312
G1 X274.465 Y122.407 E26.18909
G1 X273.904 Y130.249 E26.45058
G1 X273.828 Y140.357 E26.78678
G1 X273.783 Y141.024 E26.80902
G1 X273.659 Y141.682 E26.83129
G1 X273.457 Y142.32 E26.85354
G1 X273.152 Y142.983 E26.87782
G1 X272.99 Y143.282 E26.88913
G1 X272.636 Y143.85 E26.91139
G1 X272.218 Y144.372 E26.93363
G1 X271.74 Y144.84 E26.95588
G1 X271.21 Y145.248 E26.97813
G1 X270.635 Y145.59 E27.00038
G1 X270.057 Y145.848 E27.02143
G1 X269.852 Y145.926 E27.02873
G1 X269.214 Y146.126 E27.05096
G1 X268.556 Y146.249 E27.07323
G1 X267.861 Y146.292 E27.09639
G1 X197.8 Y146.295 E29.42663
G1 X197.132 Y146.255 E29.44888
G1 X196.474 Y146.136 E29.47112
G1 X195.546 Y145.821 E29.50372
G1 X195.289 Y145.708 E29.51306
G1 X194.694 Y145.403 E29.5353
G1 X194.139 Y145.029 E29.55756
G1 X193.633 Y144.591 E29.57981
G1 X193.183 Y144.096 E29.60206
G1 X192.717 Y143.423 E29.62929
G1 X192.601 Y143.226 E29.63689
G1 X192.297 Y142.631 E29.65912
G1 X192.066 Y142.003 E29.68137
G1 X191.977 Y141.671 E29.69281
G1 X190.357 Y134.81 E29.92728
G1 X188.808 Y129.709 E30.10459
G1 X187.047 Y124.879 E30.27558
G1 X186.856 Y124.238 E30.29783
G1 X186.718 Y123.289 E30.32972
G1 X186.679 Y122.624 E30.35188
G1 X186.693 Y121.78 E30.37995
G1 X187.035 Y118.084 E30.50341
G1 X187.287 Y112.681 E30.68331
G1 X187.303 Y99.67 E31.11605
G1 X187.149 Y94.235 E31.2969
G1 X186.691 Y88.777 E31.47907
G1 X186.678 Y88.039 E31.50362
G1 X186.709 Y87.397 E31.525
G1 X186.781 Y86.732 E31.54724
G1 X187.03 Y85.778 E31.58004
G1 X189.089 Y80.031 E31.78308
G1 X190.589 Y74.931 E31.95989
G1 X191.972 Y68.919 E32.16507
G1 X192.16 Y68.277 E32.18732
M204 S5000
M205 X30 Y30
G0 F3600 X192.545 Y68.39
M204 S500
M205 X20 Y20
G1 F1800 X192.803 Y67.799 E32.20877
G1 X193.132 Y67.245 E32.2302
G1 X193.352 Y66.946 E32.24255
G1 X193.542 Y66.706 E32.25273
G1 X193.973 Y66.227 E32.27416
G1 X194.459 Y65.804 E32.29559
G1 X194.995 Y65.445 E32.31705
G1 X195.57 Y65.155 E32.33847
G1 X196.178 Y64.938 E32.35994
G1 X196.807 Y64.798 E32.38137
G1 X197.615 Y64.734 E32.40833
G1 X268.711 Y64.681 E34.77299
G1 X269.355 Y64.72 E34.79445
G1 X269.988 Y64.839 E34.81587
G1 X270.602 Y65.036 E34.83732
G1 X271.187 Y65.306 E34.85875
G1 X271.734 Y65.647 E34.88019
G1 X272.235 Y66.054 E34.90166
G1 X272.682 Y66.519 E34.92311
G1 X273.067 Y67.035 E34.94452
G1 X273.386 Y67.596 E34.96599
G1 X273.633 Y68.191 E34.98742
G1 X273.849 Y69.058 E35.01713
G1 X273.955 Y69.719 E35.0394
G1 X274.021 Y70.547 E35.06703
G1 X274.003 Y88.997 E35.68068
G1 X273.955 Y89.696 E35.70398
G1 X273.336 Y94.225 E35.85602
G1 X272.864 Y99.587 E36.03505
G1 X272.696 Y104.948 E36.21344
G1 X272.832 Y110.297 E36.39141
G1 X273.273 Y115.666 E36.57058
G1 X274.033 Y121.313 E36.7601
G1 X274.079 Y121.956 E36.78154
G1 X274.066 Y122.378 E36.79558
G1 X273.504 Y130.233 E37.0575
G1 X273.428 Y140.354 E37.39414
G1 X273.383 Y140.997 E37.41558
G1 X273.259 Y141.63 E37.43703
G1 X273.058 Y142.242 E37.45846
G1 X272.8 Y142.792 E37.47866
G1 X272.638 Y143.091 E37.48997
G1 X272.296 Y143.638 E37.51143
G1 X271.89 Y144.138 E37.53285
G1 X271.424 Y144.584 E37.55431
G1 X270.907 Y144.969 E37.57575
G1 X270.346 Y145.287 E37.59719
G1 X269.915 Y145.474 E37.61282
G1 X269.71 Y145.552 E37.62012
G1 X269.095 Y145.744 E37.64154
G1 X268.46 Y145.857 E37.663
G1 X267.861 Y145.892 E37.68295
G1 X197.8 Y145.895 E40.01319
G1 X197.157 Y145.855 E40.03462
G1 X196.523 Y145.736 E40.05607
G1 X195.707 Y145.455 E40.08478
G1 X195.45 Y145.342 E40.09412
G1 X194.877 Y145.047 E40.11555
G1 X194.345 Y144.682 E40.13701
G1 X193.862 Y144.255 E40.15845
G1 X193.436 Y143.772 E40.17987
G1 X193.062 Y143.22 E40.20205
G1 X192.946 Y143.023 E40.20965
G1 X192.654 Y142.449 E40.23107
G1 X192.366 Y141.58 E40.26152
G1 X190.741 Y134.695 E40.49681
G1 X189.187 Y129.582 E40.67455
G1 X187.423 Y124.742 E40.84589
G1 X187.24 Y124.124 E40.86732
G1 X187.117 Y123.265 E40.89619
G1 X187.078 Y122.6 E40.91834
G1 X187.091 Y121.817 E40.94439
G1 X187.435 Y118.097 E41.06864
G1 X187.687 Y112.7 E41.24834
G1 X187.703 Y99.66 E41.68206
G1 X187.549 Y94.227 E41.86283
G1 X187.089 Y88.744 E42.04584
G1 X187.077 Y88.058 E42.06866
G1 X187.108 Y87.416 E42.09004
G1 X187.179 Y86.775 E42.11149
G1 X187.407 Y85.913 E42.14114
G1 X189.463 Y80.173 E42.34393
G1 X190.974 Y75.036 E42.52203
G1 X192.361 Y69.008 E42.72776
G1 X192.545 Y68.39 E42.74921
M204 S5000
M205 X30 Y30
G0 F3600 X192.911 Y87.277
M204 S500
M205 X20 Y20
;TYPE:SUPPORT
G1 F1800 X192.957 Y87.284 E42.75075
G1 X193.172 Y87.376 E42.75853
G1 X192.995 Y87.379 E42.76442
G1 X192.643 Y87.524 E42.77708
G1 X192.49 Y87.655 E42.78378
G1 X192.577 Y87.44 E42.79149
G1 X192.603 Y87.405 E42.79294
G1 X192.712 Y87.314 E42.79767
G1 X192.767 Y87.291 E42.79965
G1 X192.911 Y87.277 E42.80446
M204 S5000
M205 X30 Y30
G1 F2400 E37.80446
G0 F3600 X192.29 Y88.393
G0 X192.24 Y88.821
G0 X192.24 Y121.74
G0 X192.251 Y121.849
G0 X192.491 Y122.919
M204 S500
M205 X20 Y20
G1 F2400 E42.80446
G1 F1800 X192.618 Y123.042 E42.81034
G1 X192.996 Y123.198 E42.82394
G1 X193.174 Y123.201 E42.82986
G1 X192.957 Y123.293 E42.8377
G1 X192.909 Y123.301 E42.83932
G1 X192.766 Y123.288 E42.8441
G1 X192.714 Y123.266 E42.84598
G1 X192.606 Y123.174 E42.85069
G1 X192.579 Y123.137 E42.85222
G1 X192.491 Y122.919 E42.86004
M204 S5000
M205 X30 Y30
G1 F2400 E37.86004
G0 F3600 X196.865 Y140.806
G0 X197.254 Y141.214
G0 X197.755 Y141.37
G0 X268.073 Y141.345
G0 X268.342 Y141.246
G0 X268.74 Y140.872
G0 X268.904 Y140.35
G0 X268.904 Y122.838
G0 X268.864 Y122.452
G0 X268.736 Y122.119
G0 X267.974 Y121.375
M204 S500
M205 X20 Y20
G1 F2400 E42.86004
G1 F1800 X268.187 Y121.284 E42.86774
G1 X268.233 Y121.277 E42.86929
G1 X268.377 Y121.291 E42.8741
G1 X268.432 Y121.314 E42.87608
G1 X268.541 Y121.405 E42.88081
G1 X268.568 Y121.442 E42.88233
G1 X268.656 Y121.662 E42.89021
G1 X268.526 Y121.536 E42.89623
G1 X268.178 Y121.391 E42.90877
G1 X267.974 Y121.375 E42.91558
M204 S5000
M205 X30 Y30
G1 F2400 E37.91558
G0 F3600 X263.906 Y121.375
G0 X262.621 Y121.375
G0 X256.474 Y126.609
G0 X256.487 Y126.708
M204 S500
M205 X20 Y20
;TYPE:WALL-INNER
G1 F2400 E42.91558
G1 F1800 X256.144 Y126.778 E42.92722
G1 X255.855 Y126.874 E42.93735
G1 X255.562 Y127.013 E42.94814
G1 X255.286 Y127.19 E42.95904
G1 X255.037 Y127.397 E42.96981
G1 X254.824 Y127.624 E42.98016
G1 X254.631 Y127.887 E42.99101
G1 X254.479 Y128.162 E43.00146
G1 X254.405 Y128.328 E43.00751
G1 X254.313 Y128.604 E43.01719
G1 X254.269 Y128.801 E43.0239
G1 X254.228 Y129.114 E43.0344
G1 X254.225 Y129.44 E43.04524
G1 X254.264 Y129.767 E43.0562
G1 X254.346 Y130.086 E43.06715
G1 X254.464 Y130.387 E43.0779
G1 X254.62 Y130.675 E43.0888
G1 X254.807 Y130.933 E43.0994
G1 X254.936 Y131.081 E43.10593
G1 X255.171 Y131.299 E43.11659
G1 X255.435 Y131.489 E43.12741
G1 X255.721 Y131.645 E43.13824
G1 X256.013 Y131.76 E43.14868
G1 X256.169 Y131.807 E43.1541
G1 X256.503 Y131.871 E43.16541
G1 X256.83 Y131.89 E43.1763
G1 X257.157 Y131.868 E43.1872
G1 X257.501 Y131.8 E43.19887
G1 X257.79 Y131.702 E43.20902
G1 X258.081 Y131.564 E43.21973
G1 X258.347 Y131.395 E43.23021
G1 X258.492 Y131.282 E43.23632
G1 X258.713 Y131.074 E43.24642
G1 X258.921 Y130.824 E43.25724
G1 X259.089 Y130.559 E43.26767
G1 X259.174 Y130.399 E43.2737
G1 X259.288 Y130.112 E43.28397
G1 X259.335 Y129.957 E43.28936
G1 X259.4 Y129.624 E43.30064
G1 X259.422 Y129.301 E43.31141
G1 X259.405 Y128.973 E43.32233
G1 X259.339 Y128.627 E43.33405
G1 X259.242 Y128.337 E43.34422
G1 X259.106 Y128.045 E43.35493
G1 X258.933 Y127.767 E43.36582
G1 X258.729 Y127.521 E43.37645
G1 X258.59 Y127.382 E43.38299
G1 X258.344 Y127.18 E43.39358
G1 X258.067 Y127.005 E43.40447
G1 X257.774 Y126.868 E43.41523
G1 X257.492 Y126.776 E43.4251
G1 X257.305 Y126.734 E43.43147
G1 X257.132 Y126.706 E43.4373
G1 X256.814 Y126.688 E43.4479
G1 X256.487 Y126.708 E43.45879
M204 S5000
M205 X30 Y30
G0 F3600 X256.474 Y126.609
G0 X254.187 Y81.124
G0 X254.364 Y80.325
G0 X254.789 Y79.605
G0 X255.269 Y79.153
G0 X255.597 Y78.973
G0 X256.482 Y78.608
G0 X256.494 Y78.707
M204 S500
M205 X20 Y20
G1 F1800 X256.151 Y78.776 E43.47043
G1 X255.864 Y78.871 E43.48048
G1 X255.568 Y79.009 E43.49135
G1 X255.292 Y79.185 E43.50223
G1 X255.042 Y79.393 E43.51305
G1 X254.819 Y79.63 E43.52387
G1 X254.626 Y79.894 E43.53475
G1 X254.472 Y80.173 E43.54535
G1 X254.401 Y80.339 E43.55135
G1 X254.311 Y80.609 E43.56082
G1 X254.266 Y80.809 E43.56764
G1 X254.226 Y81.126 E43.57827
G1 X254.226 Y81.451 E43.58908
G1 X254.266 Y81.776 E43.59997
G1 X254.348 Y82.093 E43.61086
